X: 1
T: John Kelly's
M: 4/4
L: 1/8
R: reel
K: Gmaj
DEGA ~B2GB|AGEF GABc|d2Bd gd~d2|egdB AcBA|
G3F GA~B2|AGEF GABc|d2Bd gedB|1 cAFA G3E:|2 cAFA GABd||
|:egfg edBd|~d2gd ~B3d|~c3A B2dB|cBAG FDEF|
G3F GA~B2|AGEF GABc|d2Bd gedB|1 cAFA GABd:|2 cAFA G3E||
